src/user-solid-square.svg

<?xml version="1.0" encoding="UTF-8" standalone="no"?>
<svg width="20px" height="20px" viewBox="0 0 20 20" version="1.1" xmlns="http://www.w3.org/2000/svg" xmlns:xlink="http://www.w3.org/1999/xlink">
    <!-- Generator: Sketch 3.7.2 (28276) - http://www.bohemiancoding.com/sketch -->
    <title>user-solid-square</title>
    <desc>Created with Sketch.</desc>
    <defs></defs>
    <g id="Page-1" stroke="none" stroke-width="1" fill="none" fill-rule="evenodd">
        <g id="user-solid-square" fill="#000000">
            <path d="M0,1.99079514 C0,0.891309342 0.898212381,0 1.99079514,0 L18.0092049,0 C19.1086907,0 20,0.898212381 20,1.99079514 L20,18.0092049 C20,19.1086907 19.1017876,20 18.0092049,20 L1.99079514,20 C0.891309342,20 0,19.1017876 0,18.0092049 L0,1.99079514 Z M6.99999861,6.00166547 C6.99999861,4.34389141 8.3465151,3 9.99999722,3 C11.6568507,3 12.9999958,4.33902013 12.9999958,6.00166547 L12.9999958,7.99833453 C12.9999958,9.65610859 11.6534793,11 9.99999722,11 C8.34314374,11 6.99999861,9.66097987 6.99999861,7.99833453 L6.99999861,6.00166547 Z M18.0000045,15.1405177 C15.6466165,13.7791553 12.914299,13 10,13 C7.08570101,13 4.35338349,13.7791553 1.99999555,15.1405177 L2,18 L18,18 L18,15.1405151 L18.0000045,15.1405177 Z" id="Combined-Shape"></path>
        </g>
    </g>
</svg>

<svg xmlns="http://www.w3.org/2000/svg" viewBox="0 0 20 20"><path d="M0 2C0 .9.9 0 2 0h16a2 2 0 0 1 2 2v16a2 2 0 0 1-2 2H2a2 2 0 0 1-2-2V2zm7 4v2a3 3 0 1 0 6 0V6a3 3 0 1 0-6 0zm11 9.14A15.93 15.93 0 0 0 10 13c-2.91 0-5.65.78-8 2.14V18h16v-2.86z"/></svg>
